src/assets/outline/Level.svg

<svg width="24" height="24" viewBox="0 0 24 24"  xmlns="http://www.w3.org/2000/svg">
<path d="M12 22.7501C6.92003 22.7501 2.49003 19.1401 1.47003 14.1701C1.39003 13.7601 1.65003 13.3701 2.05003 13.2801C2.46003 13.2001 2.85003 13.4601 2.94003 13.8601C3.82003 18.1401 7.63003 21.2501 12 21.2501C16.36 21.2501 20.17 18.1601 21.06 13.9001C21.14 13.4901 21.54 13.2301 21.95 13.3201C22.36 13.4001 22.62 13.8001 22.53 14.2101C21.49 19.1501 17.07 22.7501 12 22.7501Z" />
<path d="M21.81 10.8102C21.46 10.8102 21.15 10.5603 21.08 10.2003C20.23 5.88026 16.41 2.74023 12 2.74023C7.61995 2.74023 3.80996 5.85025 2.93996 10.1302C2.85996 10.5402 2.45996 10.7902 2.04996 10.7102C1.63996 10.6302 1.37996 10.2303 1.46996 9.82025C2.48996 4.85025 6.91995 1.24023 12 1.24023C17.13 1.24023 21.56 4.89025 22.55 9.91025C22.63 10.3202 22.36 10.7103 21.96 10.7903C21.91 10.8103 21.86 10.8102 21.81 10.8102Z" />
<path d="M12 14.25C10.76 14.25 9.75 13.24 9.75 12C9.75 10.76 10.76 9.75 12 9.75C13.24 9.75 14.25 10.76 14.25 12C14.25 13.24 13.24 14.25 12 14.25ZM12 11.25C11.59 11.25 11.25 11.59 11.25 12C11.25 12.41 11.59 12.75 12 12.75C12.41 12.75 12.75 12.41 12.75 12C12.75 11.59 12.41 11.25 12 11.25Z" />
</svg>

<?xml version="1.0" encoding="UTF-8"?>
<svg width="24" height="24" viewBox="0 0 24 24" xmlns="http://www.w3.org/2000/svg">
 <path d="m12 22.75c-5.08 0-9.51-3.61-10.53-8.58-0.08-0.41 0.18-0.8 0.58-0.89 0.41-0.08 0.8 0.18 0.89 0.58 0.88 4.28 4.69 7.39 9.06 7.39 4.36 0 8.17-3.09 9.06-7.35 0.08-0.41 0.48-0.67 0.89-0.58 0.41 0.08 0.67 0.48 0.58 0.89-1.04 4.94-5.46 8.54-10.53 8.54z"/>
 <path d="m21.81 10.81c-0.35 0-0.66-0.2499-0.73-0.6099-0.85-4.32-4.67-7.4601-9.08-7.4601-4.38 0-8.19 3.11-9.06 7.39-0.08 0.41-0.48 0.66-0.89 0.58s-0.67-0.4799-0.58-0.88995c1.02-4.97 5.45-8.58 10.53-8.58 5.13 0 9.56 3.65 10.55 8.67 0.08 0.40995-0.19 0.80005-0.59 0.88005-0.05 0.02-0.1 0.0199-0.15 0.0199z"/>
 <path d="m12 14.25c-1.24 0-2.25-1.01-2.25-2.25s1.01-2.25 2.25-2.25 2.25 1.01 2.25 2.25-1.01 2.25-2.25 2.25zm0-3c-0.41 0-0.75 0.34-0.75 0.75s0.34 0.75 0.75 0.75 0.75-0.34 0.75-0.75-0.34-0.75-0.75-0.75z"/>
</svg>
